X: 343
T: 6.e La Villemondoise
T: la Villemondoise
B: Robert Landrin "Potpourri fran\,cois des contre-danse ancienne tel quil se danse chez la Reine ..." 1760 p.34 #3 dance 11 #6
S: http://memory.loc.gov/cgi-bin/query/D?musdibib:2:./temp/~ammem_EbRS:
Z: 2014 John Chambers <jc:trillian.mit.edu>
M: 6/8
L: 1/8
K: D
% - - - - - - - - - - - - - - - - - - - - - - - - -
!segno!d2e |\
fgf efd | e2A d2e |\
fgf edc | Hd3 |][|\
[M:2/4] "2.F."f/g/f/e/ |\
dcBA | ^GE [M:6/8] A^GA |
BABcdc | B3 efe |\
a3 bc'b | a3 efe |\
edc BA^G | A3 efe |\
efe efe | e3 efe |\
efe efe | e3 !segno!y|]
% - - - - - - - - - - - - - - - - - - - - - - - - -

%%sep 1 1 500
%%sep 1 1 500
